X:20
T:La Canderllonly Rosue(sic). WI.020
M:2/4
L:1/8
Q:1/2=100
C:”The other 3 figures without (…illegible…)”
S:Wm Irwin, 1838 MS, AGG’s Transcription
R:.quadrille
O:England
A:Lake District
N:Title – AGG’s handwriting is sometimes as impenetrable as the hand she
N:was herself having difficulty with..CGP
Z:vmp.Chris Partington.2005
K:D
f2ed|cBA2|d2{cd}ef|ege2|\
g2fe|{e}dc {c}B2|A2 {^GA}.B.c|e2″ qu”d2:|!
|:e2{fe}^de|g^de2|f2df|e2{^g}az|\
e2{fe}^de|g^de2|f2df|ea”DC”^g=g:|

